X: 181674
T: Repeal of the Union
S: "Roche Collection of Traditional Irish Music" [I/37/80]
L: 1/8
M: 6/8
R: jig
K: G
A | BcB AGE | DGG DGG | BAB cBc | def gdc |
B3 AGE | DGG DGG | B/c/dB cAF | AGG G2 :|
A | BAB cBc | dgg fdd | fef gfg | a2g fdB |
dgg b2g | a2g fdc | B/c/dB cAF | AGG G2 :|
P: second setting
A| BcB AGE | DGG AGA | BAB cBc | dgg fdc |
BcB AGE | DGG AGA | BdB cAF | AGG G2 :|
A | BAB cBc | dgg fdd | fef gfg | aba fdd | 
dgg bgg | aba fdd | BdB cAF | AGG G2 :|
